X:1
T:Konrad Hagius, 
T:Psalmen Davids etc. (1604)
T:Lobgesang der Jungrawen Maria
T:Luc& 1.
T:Magnificat anima mea Dominum
%%score [ 1 2 3 4 ]
L:1/8
Q:1/4=240
M:none
K:F
V:1 treble nm="Midi_1"
V:2 treble nm="Midi_1"
V:3 treble-8 nm="Midi_1"
V:4 bass nm="Midi_1"
V:1
 B8 B4 A4 | G4 ^F4 G8 | A4 d4 c4 c4 | B4 A4 B8 | z16 | B8 A4 B4 | c4 c4 c8 | =B4 B4 d4 d4 | %8
w: Mein seel macht|grosz den Her-|ren /All was in|mir mag seyn/||Mein geist fro-|lockt mit Eh-|ren/ in Gott dem|
 d4 ^c4 d8 | z16 | =B8 c4 _B4 | A4 G8 F4 | G4 G4 G4 F4 | F4 E4 F8 | z16 | d8 d4 c4 | %16
w: Hei- land mein.||Der sein aug|hat thun wen-|den/ Auff sein magd|die- ser zeit/||Hat an- gsehn|
 B2 G2 B6 AG A4 | B4 B4 A4 G4 | A2 G2 G8 ^F4 | G16 |] %20
w: mich el- len- * * *|den/ und mei- ne|ni- * * drig-|keit.|
V:2
 G8 G4 D4 | D2 B,2 D6 CB, C4 | A,4 F4 _E4 C4 | D_E F4 F2 F8 | z16 | F8 F4 F4 | A4 A4 G8 | %7
w: Mein seel macht|grosz den Her- * * ren|/All was in mir|* * * mag seyn/||Mein geist fro-|lockt mit Eh-|
 G4 D4 D4 F4 | A4 A4 ^F8 | z16 | G8 A4 F4 | F4 D4 D8 | D4 _E4 E4 C4 | C4 C4 C8 | z16 | F8 F4 F4 | %16
w: ren/ in Gott dem|Hei- land mein.||Der sein aug|hat thun wen-|den/ Auff sein magd|die- ser zeit/||Hat an- gsehn|
 G4 G4 F8 | D4 F4 F4 D4 | _E8 D8 | D16 |] %20
w: mich el- len-|den/ und mei- ne|ni- drig-|keit.|
V:3
"^Melodey" d8 G4 A4 | B4 A4 G8 | F4 B4 G4 A4 | B4 c4 d8 | z16 | d8 c4 d4 | e4 f4 e8 | d4 g4 f4 d4 | %8
w: Mein seel macht|grosz den Her-|ren /All was in|mir mag seyn/||Mein geist fro-|lockt mit Eh-|ren/ in Gott dem|
 f4 e4 d8 | z16 | d8 f4 d4 | c4 B4 A8 | G4 c4 B4 A4 | G4 G4 F8 | z16 | B8 B4 c4 | d4 _e4 c8 | %17
w: Hei- land mein.||Der sein aug|hat thun wen-|den/ Auff sein magd|die- ser zeit/||Hat an- gsehn|mich el- len-|
 B4 d4 c4 B4 | c8 A8 | G16 |] %20
w: den/ und mei- ne|ni- drig-|keit.|
V:4
 G,8 G,4 ^F,4 | G,4 D,4 _E,8 | D,4 B,,4 C,4 F,4 | B,,4 F,4 B,,8 | z16 | B,8 F,4 B,4 | A,4 F,4 C8 | %7
w: Mein seel macht|grosz den Her-|ren /All was in|mir mag seyn/||Mein geist fro-|lockt mit Eh-|
 G,4 G,4 B,4 B,4 | A,4 A,4 D,8 | z16 | G,8 F,4 B,4 | F,4 G,4 D,8 | G,4 C,4 _E,4 F,4 | C,4 C,4 F,8 | %14
w: ren/ in Gott dem|Hei- land mein.||Der sein aug|hat thun wen-|den/ Auff sein magd|die- ser zeit/|
 z16 | B,,8 B,4 A,4 | G,4 _E,4 F,8 | B,,4 B,,4 F,4 G,4 | C,8 D,8 | %19
w: |Hat an- gsehn|mich el- len-|den/ und mei- ne|ni- drig-|
"^Sih alle geschlecht auff Erden/""^Von nun an immer fort/""^Mich selig rühmen werden""^Durchaus an allem ort:""^Denn er hat mir bewiesen""^Grosz wunder dieser frist/""^Der mechtig wirt gepriesen/""^Des nam auch heilig ist:""^Die gütigkeit des Herren""^Weit hin strecken thut/""^Sie wirt unendlich wehren/""^Auff kindes kinder gut""^Wirt bleiben ohn auffhören""^Bei menschen für und für/""^Die ihn auffrichtig ehren""^Und fürchten nach gebür.""^Ehr hat gewalt thun uben""^Mit seinem arm fürwar/""^Hoffertig stolsze buben""^Hat er zustreivet gar.""^Er sesz vom stul hernider""^Die starcken hochgenant/""^Erhöhet auch hernider""^Dienidrig sind im Land" G,,16 |] %20
w: keit.|

